src/svg/white/etc.svg

<svg xmlns="http://www.w3.org/2000/svg" width="32" height="32" viewBox="0 0 32 32"><g fill="none" fill-rule="evenodd"><path fill="#FFF" d="M16,32 C7.163444,32 0,24.836556 0,16 C0,7.163444 7.163444,0 16,0 C24.836556,0 32,7.163444 32,16 C32,24.836556 24.836556,32 16,32 Z M22.7318008,15.999483 L16,12.1905887 L9.26819924,15.9994829 L16,19.7820022 L22.7318008,15.999483 Z M16,21.0475946 C14.0157301,19.9248135 11.4547742,18.4783693 9,17.0962537 C11.079043,20.3439475 13.6594444,24.3567454 16,28 C18.3405556,24.3567452 20.920957,20.3439473 23,17.0962537 C20.5452258,18.4783691 17.9842699,19.9248133 16,21.0475945 Z M16.0000001,10.9592592 L23,14.8661535 L16,4.00000018 L9,14.8661535 L16,10.9592594 Z"/><g fill="#FFF" transform="translate(9 4)"><path fill-opacity=".8" fill-rule="nonzero" d="M6.98852447,12.5527163 L0.267759563,11.9756754 L6.98852447,8.17433816 L6.98852447,12.5527163 Z M6.98852447,17.0137714 L6.98852448,23.9523831 C4.65180592,20.3163567 2.07563468,16.3115204 0,13.0702703 C2.45074991,14.4496436 5.0075075,15.8932179 6.98852448,17.0137714 Z M6.98852447,6.94545187 L0,10.8445946 L6.98852447,1.81144372e-07 L6.98852447,6.94545187 Z"/><path fill-opacity=".5" fill-rule="nonzero" d="M13.7092894,11.9756755 L6.98852448,12.5527164 L6.98852448,8.17433798 L13.7092894,11.9756755 Z M6.98852447,17.0137713 C8.96954145,15.8932177 11.526299,14.4496434 13.977049,13.0702701 C11.9014143,16.3115202 9.32524303,20.3163565 6.98852447,23.9523829 L6.98852448,17.0137712 Z M6.98852448,6.94545168 L6.98852448,0 L13.977049,10.8445944 L6.98852448,6.94545168 Z"/><polygon fill-opacity=".5" points=".268 12.553 6.989 11.976 .268 15.751" transform="matrix(-1 0 0 1 7.256 0)"/></g></g></svg>

<svg xmlns="http://www.w3.org/2000/svg" width="32" height="32" viewBox="0 0 32 32"><g fill="#FFF" fill-rule="evenodd"><path d="M16 32C7.163 32 0 24.837 0 16S7.163 0 16 0s16 7.163 16 16-7.163 16-16 16zm6.732-16L16 12.19 9.268 16 16 19.781l6.732-3.783zM16 21.047a3944.37 3944.37 0 0 0-7-3.952c2.079 3.248 4.66 7.26 7 10.904 2.34-3.643 4.921-7.656 7-10.904a3944.185 3944.185 0 0 0-7 3.952zm0-10.089l7 3.907L16 4 9 14.866l7-3.907z"/><path fill-opacity=".8" fill-rule="nonzero" d="M15.989 16.553l-6.721-.577 6.72-3.802v4.379zm0 4.46v6.94C13.652 24.315 11.076 20.311 9 17.07c2.45 1.38 5.008 2.823 6.989 3.944zm0-10.068L9 14.845 15.989 4v6.945z"/><path fill-opacity=".5" fill-rule="nonzero" d="M22.71 15.976l-6.721.577v-4.379l6.72 3.802zm-6.721 5.038c1.98-1.12 4.537-2.564 6.988-3.944-2.076 3.242-4.652 7.246-6.988 10.882v-6.938zm0-10.069V4l6.988 10.845-6.988-3.9z"/><path fill-opacity=".5" d="M15.988 16.553l-6.721-.577 6.721 3.775z"/></g></svg>
